X:1
T:Erstanden isr der heilig Christ
T:André Vierendeels
T:Melody by Georg Vogler (1625) (Soprano voice) 
T:Source : Catechismus---Würzburg---J.Volmari---1652. Editor : André Vierendeels (13/10/17).
T:Notes : Original clef : C1, other voices supplied editorially Original note values have been quartered Text middle German
T:Erstanden ist der heilig Christ
T:©
T:©
C:André Vierendeels
Z:©
%%score [ 1 2 3 ]
L:1/8
Q:1/4=90
M:3/4
K:F
V:1 treble nm="Soprano" snm="S"
V:2 treble-8 nm="Tenor" snm="T"
V:3 bass nm="Bass" snm="B"
V:1
 z2 z2 G2 |"^1)" G4 A2 | B4 B2 | c4 c2 | d4 B2 | c4 c2 | !fermata!d4 d2 | d4 e2 | c4 d2 | d2 c4 | %10
w: Er-|stan- den|ist der|hei- lig|Christ, Al-|le- lu-|ja, der|al- ler|Welt ein|Trö- ster|
w: Der|Slan- gen-|kopff zer-|tret- ten|ist, Al-|le- lu-|ja, zer-|knirscht hat|ihn Herr|Je- sus|
 !fermata!B4 d2 | c4 B2 | A2 G2 d2 | c4 B2 | G2 G2 c2 | c2 A4 | !fermata!G6 |] %17
w: ist, er|ist er-|stan- den von|To- des-|Ban- den, Al-|le- lu-|ja.|
w: Christ, Al-|le, Al-|le- * lu-|ja, Al-|le, Al- le-|lu- *|ja.|
V:2
"^1)" d6 |"^2)" B2 c2 d2 | B4 d2 | e4 f2 | f4 d2 | c4 e2 | !fermata!f4 d2 | f4 e2 | e4 f2 | d2 e4 | %10
w: Er-|stan- * den|ist der|hei- lig|Christ, Al-|le- lu-|ja, der|al- ler|Welt ein|Trö- ster|
w: Der|from- * me|Vat- ter|A- bra-|ham, Al-|le- lu-|ja, dein|Feind mit|Macht grosz|Gut ab-|
 !fermata!d4 f2 | e4 d2 | c2 e2 d2 | e4 d2 | B2 B2 e2 | c2 d4 | !fermata!=B6 |] %17
w: ist, er|ist er-|stan- den von|To- des-|Ban- den, Al-|le- lu-|ja.|
w: nahm, A-|le, Al-|le- * lu-|ja, Al-|* le, Al-|Le- lu-|ja.|
V:3
"^3)""^1)""^4)" G,4 B,2 | G,2 _E,2 D,2 | G,2 D,4 | C,2 E,2 A,2 | D,4 G,2 | F,2 G,2 E,2 | %6
w: Er- *|stan- * den|ist der|hei- * lig|Christ, Al-|le- * lu-|
w: Jo- *|seph die in|den Kär-|* * ker|lag, Al-|le- * lu-|
 !fermata!D,4 D,2- | D,2 A,4 | A,2 G,2 D,2 | G,2 C,2 E,2 | !fermata!G,4 D,2 | E,2 C,2 G,2 | %12
w: ja, der|_ al-|ler Welt ein|Trö- * ster|ist, er-|stan- * den|
w: ja, sitzt|_ präch-|tig auff seim|Eh- * ren-|wag, Al-|le, _ Al-|
 F,2 C,2 G,2 | C,2 E,2 G,2- | G,2 G,2 A,2 | E,2 ^F,4 | !fermata!G,6 |] %17
w: ist von To-|* des- Ban-|* den, Al-|le- lu-|ja.|
w: le- * lu-|* ja, Al-|* le, Al-|le- lu-|ja.|

